svg/search-in-list.svg

<?xml version="1.0" encoding="UTF-8"?>
<svg xmlns="http://www.w3.org/2000/svg" xmlns:xlink="http://www.w3.org/1999/xlink" width="32" height="32" viewBox="0 0 32 32">
<path fill-rule="nonzero" fill="rgb(0%, 0%, 0%)" fill-opacity="1" d="M 6 5 C 4.894531 5 4 5.894531 4 7 C 4 8.105469 4.894531 9 6 9 C 7.105469 9 8 8.105469 8 7 C 8 5.894531 7.105469 5 6 5 M 11 6 L 11 8 L 28 8 L 28 6 Z M 6 14 C 4.894531 14 4 14.894531 4 16 C 4 17.105469 4.894531 18 6 18 C 7.105469 18 8 17.105469 8 16 C 8 14.894531 7.105469 14 6 14 M 11 15 L 11 17 L 28 17 L 28 15 Z M 24.5 19 C 21.667969 19 19.285156 21.226562 19.027344 24 L 11 24 L 11 26 L 19.21875 26 C 19.882812 28.289062 22.019531 30 24.5 30 C 25.699219 30 26.699219 29.601562 27.597656 29 L 30.597656 32 L 32 30.597656 L 29 27.597656 C 29.601562 26.699219 30 25.601562 30 24.5 C 30 21.5 27.5 19 24.5 19 M 24.5 21 C 26.398438 21 28 22.601562 28 24.5 C 28 26.398438 26.398438 28 24.5 28 C 22.601562 28 21 26.398438 21 24.5 C 21 22.601562 22.601562 21 24.5 21 M 6 23 C 4.894531 23 4 23.894531 4 25 C 4 26.105469 4.894531 27 6 27 C 7.105469 27 8 26.105469 8 25 C 8 23.894531 7.105469 23 6 23 M 6 23 "/>
</svg>

<svg role="img" viewBox="0 0 32 32" height="32" width="32" xmlns="http://www.w3.org/2000/svg"><path d="M6 5a1.999 1.999 0 1 0 0 4 1.999 1.999 0 1 0 0-4m5 1v2h17V6Zm-5 8a1.999 1.999 0 1 0 0 4 1.999 1.999 0 1 0 0-4m5 1v2h17v-2Zm13.5 4c-2.832 0-5.215 2.227-5.473 5H11v2h8.219c.664 2.29 2.8 4 5.281 4 1.2 0 2.2-.398 3.098-1l3 3L32 30.598l-3-3c.602-.899 1-1.996 1-3.098 0-3-2.5-5.5-5.5-5.5m0 2c1.898 0 3.5 1.602 3.5 3.5S26.398 28 24.5 28 21 26.398 21 24.5s1.602-3.5 3.5-3.5M6 23a1.999 1.999 0 1 0 0 4 1.999 1.999 0 1 0 0-4m0 0"/></svg>
